build/flags/PapuaNewGuinea.svg

<svg xmlns="http://www.w3.org/2000/svg" fill="none" viewBox="0 0 28 28" focusable="false"><defs><filter id="Papua_New_Guinea_svg__a"><feColorMatrix values="0 0 0 0 1 0 0 0 0 1 0 0 0 0 1 0 0 0 1 0"/></filter></defs><mask id="Papua_New_Guinea_svg__b" width="28" height="20" x="0" y="4" maskUnits="userSpaceOnUse"><g filter="url(#Papua_New_Guinea_svg__a)"><rect width="28" height="20" y="4" fill="#FFF" rx="3"/><rect width="28" height="20" y="4" stroke="#969696" stroke-opacity="0" stroke-width="0" rx="3"/></g></mask><path fill="none" d="M0 0H28V28H0z"/><rect width="28" height="20" y="4" fill="#FFF" rx="3"/><rect width="28" height="20" y="4" rx="3"/><g mask="url(#Papua_New_Guinea_svg__b)"><path fill="#262626" d="M0 4H28V24H0z"/><path d="M0 4H28V24H0z"/><path fill="#E8283F" fill-rule="evenodd" d="M0 4L28 4L28 24L0 4Z"/><path d="M28 4L28 24L0 4L28 4Z"/><path fill="#FFF" fill-rule="evenodd" d="M6.66668 20.6666L5.72387 20.9428L6.00001 20L5.72387 19.0571L6.66668 19.3333L7.60949 19.0571L7.33334 20L7.60949 20.9428L6.66668 20.6666Z"/><path d="M5.72387 20.9428L6.00001 20L5.72387 19.0571L6.66668 19.3333L7.60949 19.0571L7.33334 20L7.60949 20.9428L6.66668 20.6666L5.72387 20.9428Z"/><path fill="#FFF" fill-rule="evenodd" d="M6.66668 12.6666L5.72387 12.9428L6.00001 12L5.72387 11.0571L6.66668 11.3333L7.60949 11.0571L7.33334 12L7.60949 12.9428L6.66668 12.6666Z"/><path d="M5.72387 12.9428L6.00001 12L5.72387 11.0571L6.66668 11.3333L7.60949 11.0571L7.33334 12L7.60949 12.9428L6.66668 12.6666L5.72387 12.9428Z"/><path fill="#FFF" fill-rule="evenodd" d="M3.33333 16L2.39052 16.2761L2.66667 15.3333L2.39052 14.3905L3.33333 14.6667L4.27614 14.3905L4 15.3333L4.27614 16.2761L3.33333 16Z"/><path d="M2.39052 16.2761L2.66667 15.3333L2.39052 14.3905L3.33333 14.6667L4.27614 14.3905L4 15.3333L4.27614 16.2761L3.33333 16L2.39052 16.2761Z"/><path fill="#FFF" fill-rule="evenodd" d="M9.33333 15.3334L8.39052 15.6095L8.66667 14.6667L8.39052 13.7239L9.33333 14L10.2761 13.7239L10 14.6667L10.2761 15.6095L9.33333 15.3334Z"/><path d="M8.39052 15.6095L8.66667 14.6667L8.39052 13.7239L9.33333 14L10.2761 13.7239L10 14.6667L10.2761 15.6095L9.33333 15.3334L8.39052 15.6095Z"/><path fill="#FFD84E" fill-rule="evenodd" d="M18.8613 13.2656C18.7016 13.1698 18.5722 12.9442 18.5722 12.7637L18.5722 11.535C18.5722 11.3536 18.4417 11.2501 18.2442 11.3159L17.486 11.5686C17.3049 11.629 17.0275 11.6345 16.83 11.5686L16.0718 11.3159C15.8907 11.2555 15.8705 11.1305 16.0328 11.0332L17.8118 9.96576C17.9714 9.86999 18.0573 9.66184 17.9915 9.46434L17.7388 8.70614C17.6784 8.52499 17.7599 8.42164 17.9574 8.48747L18.7156 8.7402C18.8968 8.80059 19.1197 8.72282 19.2171 8.56052L20.2844 6.78153C20.3802 6.62191 20.5014 6.62303 20.5672 6.82052L20.8199 7.57873C20.8803 7.75988 20.8858 8.03724 20.8199 8.23473L20.5672 8.99294C20.5068 9.17409 20.6058 9.32094 20.7863 9.32094L22.015 9.32094C22.1964 9.32094 22.4195 9.44767 22.5169 9.60996L23.5843 11.3889C23.68 11.5486 23.603 11.7089 23.43 11.7435L21.7284 12.0838C21.5474 12.12 21.3697 12.304 21.3351 12.4771L20.9948 14.1787C20.9586 14.3597 20.8025 14.4304 20.6402 14.333L18.8613 13.2656Z"/><path d="M18.5722 12.7637L18.5722 11.535C18.5722 11.3536 18.4417 11.2501 18.2442 11.3159L17.486 11.5686C17.3049 11.629 17.0275 11.6345 16.83 11.5686L16.0718 11.3159C15.8907 11.2555 15.8705 11.1305 16.0328 11.0332L17.8118 9.96576C17.9714 9.86999 18.0573 9.66184 17.9915 9.46434L17.7388 8.70614C17.6784 8.52499 17.7599 8.42164 17.9574 8.48747L18.7156 8.7402C18.8968 8.80059 19.1197 8.72282 19.2171 8.56052L20.2844 6.78153C20.3802 6.62191 20.5014 6.62303 20.5672 6.82052L20.8199 7.57873C20.8803 7.75988 20.8858 8.03724 20.8199 8.23473L20.5672 8.99294C20.5068 9.17409 20.6058 9.32094 20.7863 9.32094L22.015 9.32094C22.1964 9.32094 22.4195 9.44767 22.5169 9.60996L23.5843 11.3889C23.68 11.5486 23.603 11.7089 23.43 11.7435L21.7284 12.0838C21.5474 12.12 21.3697 12.304 21.3351 12.4771L20.9948 14.1787C20.9586 14.3597 20.8025 14.4304 20.6402 14.333L18.8613 13.2656C18.7016 13.1698 18.5722 12.9442 18.5722 12.7637Z"/></g></svg>

<svg xmlns="http://www.w3.org/2000/svg" fill="none" viewBox="0 0 28 28" focusable="false"><path fill="none" d="M0 0h28v28H0z"/><rect width="28" height="20" y="4" fill="#FFF" rx="3"/><rect width="28" height="20" y="4" rx="3"/><mask id="Papua_New_Guinea_svg__a" width="28" height="20" x="0" y="4" mask-type="alpha" maskUnits="userSpaceOnUse"><rect width="28" height="20" y="4" fill="#FFF" rx="3"/><rect width="28" height="20" y="4" stroke="#979797" stroke-opacity="0" stroke-width="0" rx="3"/></mask><g mask="url(#Papua_New_Guinea_svg__a)"><path fill="#262626" d="M0 4h28v20H0z"/><path d="M0 4h28v20H0z"/></g><g mask="url(#Papua_New_Guinea_svg__a)"><path fill="#E8283F" fill-rule="evenodd" d="M0 4h28v20z"/><path d="M28 4v20L0 4z"/></g><g mask="url(#Papua_New_Guinea_svg__a)"><path fill="#FFF" fill-rule="evenodd" d="m6.66 20.66-.94.28L6 20l-.28-.95.94.28.94-.28-.27.95.27.94z"/><path d="M5.72 20.94 6 20l-.28-.95.94.28.94-.28-.27.95.27.94-.94-.28z"/></g><g mask="url(#Papua_New_Guinea_svg__a)"><path fill="#FFF" fill-rule="evenodd" d="m6.66 12.66-.94.28L6 12l-.28-.95.94.28.94-.28-.27.95.27.94z"/><path d="M5.72 12.94 6 12l-.28-.95.94.28.94-.28-.27.95.27.94-.94-.28z"/></g><g mask="url(#Papua_New_Guinea_svg__a)"><path fill="#FFF" fill-rule="evenodd" d="m3.33 16-.94.27.27-.94-.27-.94.94.27.94-.27-.27.94.27.94z"/><path d="m2.39 16.27.27-.94-.27-.94.94.27.94-.27-.27.94.27.94-.94-.27z"/></g><g mask="url(#Papua_New_Guinea_svg__a)"><path fill="#FFF" fill-rule="evenodd" d="m9.33 15.33-.94.27.27-.94-.27-.94.94.28.94-.28-.27.94.27.94z"/><path d="m8.39 15.6.27-.94-.27-.94.94.28.94-.28-.27.94.27.94-.94-.27z"/></g><g mask="url(#Papua_New_Guinea_svg__a)"><path fill="#FFD84E" fill-rule="evenodd" d="M18.86 13.26a.66.66 0 0 1-.29-.5v-1.23c0-.18-.13-.28-.33-.22l-.76.25c-.18.06-.46.07-.65 0l-.76-.25c-.18-.06-.2-.18-.04-.28l1.78-1.07c.16-.1.24-.3.18-.5l-.26-.76c-.06-.18.02-.28.22-.22l.76.26c.18.06.4-.02.5-.18l1.07-1.78c.1-.16.22-.16.28.04l.25.75c.07.18.07.46 0 .66l-.25.76c-.06.18.04.33.22.33h1.23c.18 0 .4.12.5.28l1.07 1.78c.1.16.02.32-.15.36l-1.71.34c-.18.04-.36.22-.39.39l-.34 1.7c-.04.18-.19.26-.35.16z"/><path d="M18.57 12.76v-1.23c0-.18-.13-.28-.33-.22l-.76.25c-.18.06-.46.07-.65 0l-.76-.25c-.18-.06-.2-.18-.04-.28l1.78-1.07c.16-.1.24-.3.18-.5l-.26-.76c-.06-.18.02-.28.22-.22l.76.26c.18.06.4-.02.5-.18l1.07-1.78c.1-.16.22-.16.28.04l.25.75c.07.18.07.46 0 .66l-.25.76c-.06.18.04.33.22.33h1.23c.18 0 .4.12.5.28l1.07 1.78c.1.16.02.32-.15.36l-1.71.34c-.18.04-.36.22-.39.39l-.34 1.7c-.04.18-.19.26-.35.16l-1.78-1.07a.66.66 0 0 1-.29-.5"/></g></svg>
